X:1
T:Fantasia No. 1 in A (flute, theme)
C:Georg Philipp Telemann
K:A
M:4/4
L:1/8
Q:1/4=100
%%MIDI program 73
A3 A B2 c2 | B3 c d2 c2 | A3 B c2 B2 | A8 |
A B c B A2 A2 | A3/ B/ c3/ d/ e2 d2 | c3 B A B c2 | B3/ c/ d2 e2 d2 | c3 B A2 B2 | A8 |]
